;FLAVOR:Marlin
;TIME:1580
;Filament used: 0.795682m, 0m
;Layer height: 0.2
;MINX:145.389
;MINY:151.906
;MINZ:0.1
;MAXX:174.612
;MAXY:181.094
;MAXZ:32.9
;TARGET_MACHINE.NAME:Unknown
;Generated with Cura_SteamEngine 5.9.0
T0
M104 S245
M105
M109 S245
M82 ;absolute extrusion mode
LED_ALL_ON
SKEW_PROFILE LOAD=my_skew_profile
G92 E0
G1 F200 E1
G92 E0
TIMELAPSE_TAKE_FRAME
TIMELAPSE_TAKE_FRAME
G92 E0
G92 E0
;LAYER_COUNT:150
;LAYER:0
M107
G0 F6000 X161.946 Y180.962 Z0.1
;TYPE:SKIRT
G1 F1200 X161.027 Y181.065 E0.02307
G1 X159.852 Y181.094 E0.05239
G1 X158.984 Y181.053 E0.07406
G1 X158.379 Y181.002 E0.08921
G1 X157.288 Y180.845 E0.1167
G1 X156.643 Y180.71 E0.13314
G1 X155.571 Y180.405 E0.16095
G1 X154.724 Y180.115 E0.18328
G1 X153.575 Y179.604 E0.21465
G1 X152.372 Y178.945 E0.24886
G1 X151.405 Y178.303 E0.27782
G1 X150.467 Y177.56 E0.30767
G1 X149.621 Y176.754 E0.33681
G1 X149.063 Y176.164 E0.35707
G1 X148.283 Y175.197 E0.38806
G1 X147.789 Y174.481 E0.40976
G1 X147.214 Y173.54 E0.43727
G1 X146.624 Y172.347 E0.47047
G1 X146.192 Y171.209 E0.50084
G1 X145.996 Y170.592 E0.51698
G1 X145.677 Y169.355 E0.54885
G1 X145.503 Y168.125 E0.57984
G1 X145.389 Y166.564 E0.61888
G1 X145.424 Y165.792 E0.63816
G1 X145.551 Y164.453 E0.67171
G1 X145.748 Y163.3 E0.70089
G1 X146.005 Y162.371 E0.72493
G1 X146.346 Y161.356 E0.75164
G1 X146.592 Y160.746 E0.76805
G1 X147.085 Y159.712 E0.79663
G1 X147.496 Y158.98 E0.81757
G1 X148.125 Y158.008 E0.84645
G1 X148.944 Y156.962 E0.87959
G1 X149.56 Y156.307 E0.90202
G1 X150.242 Y155.658 E0.9255
G1 X151.255 Y154.808 E0.95849
G1 X152.12 Y154.222 E0.98455
G1 X152.705 Y153.865 E1.00165
G1 X153.567 Y153.41 E1.02596
G1 X154.439 Y153.016 E1.04983
G1 X155.209 Y152.72 E1.07041
G1 X156.112 Y152.438 E1.09401
G1 X157.157 Y152.173 E1.1209
G1 X158.055 Y152.038 E1.14355
G1 X159.044 Y151.931 E1.16837
G1 X160.149 Y151.906 E1.19594
G1 X161.011 Y151.947 E1.21746
G1 X161.592 Y151.995 E1.23201
G1 X162.709 Y152.154 E1.26015
G1 X163.36 Y152.29 E1.27674
G1 X164.435 Y152.598 E1.30464
G1 X165.234 Y152.875 E1.32573
G1 X166.116 Y153.254 E1.34968
G1 X166.743 Y153.565 E1.36714
G1 X167.777 Y154.145 E1.39671
G1 X168.698 Y154.778 E1.42459
G1 X169.463 Y155.381 E1.44889
G1 X170.351 Y156.221 E1.47938
G1 X171.144 Y157.072 E1.5084
G1 X171.706 Y157.79 E1.53114
G1 X172.204 Y158.51 E1.55298
G1 X172.769 Y159.432 E1.57995
G1 X173.399 Y160.705 E1.61538
G1 X173.857 Y161.924 E1.64787
G1 X174.105 Y162.763 E1.66969
G1 X174.263 Y163.382 E1.68563
G1 X174.472 Y164.575 E1.71584
G1 X174.612 Y166.422 E1.76205
G1 X174.578 Y167.193 E1.7813
G1 X174.475 Y168.339 E1.81
G1 X174.312 Y169.414 E1.83712
G1 X174.052 Y170.435 E1.8634
G1 X173.858 Y171.072 E1.88001
G1 X173.588 Y171.816 E1.89976
G1 X173.278 Y172.548 E1.91959
G1 X172.957 Y173.21 E1.93794
G1 X172.501 Y174.026 E1.96126
G1 X171.94 Y174.902 E1.98721
G1 X171.054 Y176.034 E2.02307
G1 X170.414 Y176.719 E2.04645
G1 X169.934 Y177.188 E2.06319
G1 X168.582 Y178.313 E2.10707
G1 X167.537 Y179 E2.13826
G1 X166.656 Y179.484 E2.16334
G1 X165.294 Y180.093 E2.20055
G1 X164.571 Y180.355 E2.21974
G1 X163.882 Y180.564 E2.2377
G1 X162.843 Y180.827 E2.26443
G1 X161.946 Y180.962 E2.28706
G0 F6000 X161.901 Y180.564
G1 F1200 X160.982 Y180.667 E2.31013
G1 X159.871 Y180.694 E2.33785
G1 X159.018 Y180.654 E2.35915
G1 X158.413 Y180.603 E2.3743
G1 X157.37 Y180.453 E2.40058
G1 X156.725 Y180.318 E2.41702
G1 X155.7 Y180.026 E2.44361
G1 X154.886 Y179.749 E2.46506
G1 X153.767 Y179.253 E2.49559
G1 X152.593 Y178.611 E2.52897
G1 X151.653 Y177.989 E2.55708
G1 X150.743 Y177.27 E2.58601
G1 X149.912 Y176.479 E2.61463
G1 X149.354 Y175.889 E2.63489
G1 X148.612 Y174.969 E2.66437
G1 X148.13 Y174.272 E2.68551
G1 X147.573 Y173.363 E2.71211
G1 X146.983 Y172.17 E2.74531
G1 X146.573 Y171.088 E2.77417
G1 X146.383 Y170.491 E2.7898
G1 X146.073 Y169.299 E2.82052
G1 X145.902 Y168.095 E2.85086
G1 X145.789 Y166.582 E2.8887
G1 X145.824 Y165.81 E2.90798
G1 X145.949 Y164.491 E2.94103
G1 X146.134 Y163.407 E2.96846
G1 X146.391 Y162.478 E2.99251
G1 X146.717 Y161.506 E3.01808
G1 X146.963 Y160.896 E3.03449
G1 X147.434 Y159.908 E3.06179
G1 X147.845 Y159.176 E3.08273
G1 X148.44 Y158.254 E3.11011
G1 X149.236 Y157.236 E3.14234
G1 X149.836 Y156.597 E3.16421
G1 X150.5 Y155.964 E3.18709
G1 X151.48 Y155.139 E3.21905
G1 X152.329 Y154.563 E3.24464
G1 X152.892 Y154.219 E3.2611
G1 X153.732 Y153.775 E3.2848
G1 X154.604 Y153.381 E3.30867
G1 X155.328 Y153.102 E3.32802
G1 X156.211 Y152.826 E3.3511
G1 X157.217 Y152.569 E3.377
G1 X158.099 Y152.436 E3.39925
G1 X159.053 Y152.331 E3.42319
G1 X160.13 Y152.306 E3.45006
G1 X160.978 Y152.346 E3.47124
G1 X161.559 Y152.394 E3.48578
G1 X162.627 Y152.546 E3.51269
G1 X163.278 Y152.682 E3.52928
G1 X164.304 Y152.976 E3.55591
G1 X165.076 Y153.243 E3.57628
G1 X165.958 Y153.622 E3.60023
G1 X166.548 Y153.914 E3.61665
G1 X167.551 Y154.475 E3.64532
G1 X168.451 Y155.093 E3.67255
G1 X169.188 Y155.672 E3.69593
G1 X170.076 Y156.512 E3.72643
G1 X170.829 Y157.319 E3.75396
G1 X171.391 Y158.037 E3.7767
G1 X171.863 Y158.72 E3.79741
G1 X172.41 Y159.609 E3.82345
G1 X173.04 Y160.882 E3.85888
G1 X173.473 Y162.038 E3.88968
G1 X173.717 Y162.862 E3.91111
G1 X173.875 Y163.481 E3.92705
G1 X174.073 Y164.606 E3.95554
G1 X174.212 Y166.404 E4.00053
G1 X174.178 Y167.175 E4.01978
G1 X174.079 Y168.28 E4.04745
G1 X173.924 Y169.315 E4.07356
G1 X173.669 Y170.318 E4.09938
G1 X173.475 Y170.955 E4.11599
G1 X173.22 Y171.66 E4.13469
G1 X172.918 Y172.373 E4.154
G1 X172.597 Y173.035 E4.17236
G1 X172.164 Y173.81 E4.1945
G1 X171.603 Y174.686 E4.22045
G1 X170.762 Y175.761 E4.2545
G1 X170.134 Y176.433 E4.27744
G1 X169.654 Y176.902 E4.29418
G1 X168.362 Y177.979 E4.33614
G1 X167.344 Y178.649 E4.36654
G1 X166.463 Y179.133 E4.39161
G1 X165.158 Y179.717 E4.42728
G1 X164.455 Y179.972 E4.44593
G1 X163.783 Y180.176 E4.46345
G1 X162.783 Y180.431 E4.4892
G1 X161.901 Y180.564 E4.51145
G0 F6000 X161.856 Y180.166
G1 F1200 X160.937 Y180.269 E4.53451
G1 X159.89 Y180.294 E4.56064
G1 X159.052 Y180.255 E4.58157
G1 X158.447 Y180.204 E4.59671
G1 X157.452 Y180.061 E4.62179
G1 X156.807 Y179.926 E4.63822
G1 X155.828 Y179.647 E4.66362
G1 X155.048 Y179.383 E4.68416
G1 X153.959 Y178.902 E4.71386
G1 X152.813 Y178.277 E4.74642
G1 X151.901 Y177.675 E4.77368
G1 X150.991 Y176.956 E4.80261
G1 X150.203 Y176.204 E4.82978
G1 X149.645 Y175.614 E4.85004
G1 X148.941 Y174.742 E4.87799
G1 X148.471 Y174.062 E4.89861
G1 X147.932 Y173.186 E4.92427
G1 X147.342 Y171.993 E4.95747
G1 X146.954 Y170.966 E4.98486
G1 X146.77 Y170.389 E4.99996
G1 X146.469 Y169.243 E5.02952
G1 X146.301 Y168.064 E5.05923
G1 X146.189 Y166.6 E5.09585
G1 X146.224 Y165.828 E5.11513
G1 X146.347 Y164.529 E5.14768
G1 X146.52 Y163.514 E5.17336
G1 X146.777 Y162.585 E5.19741
G1 X147.088 Y161.656 E5.22185
G1 X147.334 Y161.046 E5.23825
G1 X147.783 Y160.104 E5.26429
G1 X148.194 Y159.372 E5.28523
G1 X148.755 Y158.5 E5.31109
G1 X149.528 Y157.51 E5.34242
G1 X150.128 Y156.871 E5.36429
G1 X150.758 Y156.27 E5.38601
G1 X151.738 Y155.445 E5.41796
G1 X152.537 Y154.904 E5.44203
G1 X153.079 Y154.573 E5.45788
G1 X153.897 Y154.14 E5.48096
G1 X154.769 Y153.746 E5.50483
G1 X155.447 Y153.484 E5.52296
G1 X156.31 Y153.214 E5.54552
G1 X157.316 Y152.957 E5.57142
G1 X158.144 Y152.834 E5.5923
G1 X159.063 Y152.731 E5.61537
G1 X160.111 Y152.706 E5.64152
G1 X160.945 Y152.745 E5.66235
G1 X161.526 Y152.793 E5.67689
G1 X162.545 Y152.938 E5.70257
G1 X163.196 Y153.074 E5.71916
G1 X164.173 Y153.354 E5.74451
G1 X164.945 Y153.621 E5.76488
G1 X165.781 Y153.981 E5.78759
G1 X166.353 Y154.263 E5.8035
G1 X167.325 Y154.805 E5.83126
G1 X168.204 Y155.408 E5.85785
G1 X168.941 Y155.987 E5.88123
G1 X169.784 Y156.785 E5.91019
G1 X170.514 Y157.566 E5.93685
G1 X171.076 Y158.284 E5.9596
G1 X171.522 Y158.93 E5.97918
G1 X172.069 Y159.819 E6.00522
G1 X172.665 Y161.022 E6.03871
G1 X173.098 Y162.178 E6.0695
G1 X173.329 Y162.961 E6.08987
G1 X173.487 Y163.58 E6.1058
G1 X173.674 Y164.637 E6.13258
G1 X173.812 Y166.386 E6.17634
G1 X173.778 Y167.157 E6.19559
G1 X173.683 Y168.222 E6.22227
G1 X173.536 Y169.217 E6.24736
G1 X173.286 Y170.201 E6.27268
G1 X173.092 Y170.838 E6.28929
G1 X172.851 Y171.504 E6.30696
G1 X172.558 Y172.198 E6.32575
G1 X172.237 Y172.86 E6.3441
G1 X171.827 Y173.594 E6.36508
G1 X171.266 Y174.47 E6.39103
G1 X170.47 Y175.488 E6.42326
G1 X169.854 Y176.147 E6.44576
G1 X169.374 Y176.616 E6.4625
G1 X168.142 Y177.645 E6.50255
G1 X167.151 Y178.298 E6.53215
G1 X166.27 Y178.782 E6.55723
G1 X165.021 Y179.341 E6.59136
G1 X164.339 Y179.589 E6.60946
G1 X163.684 Y179.788 E6.62654
G1 X162.684 Y180.043 E6.65228
G1 X161.856 Y180.166 E6.67316
G0 F6000 X161.811 Y179.769
G1 F1200 X160.927 Y179.869 E6.69536
G1 X159.908 Y179.894 E6.72078
G1 X159.086 Y179.856 E6.74131
G1 X158.481 Y179.805 E6.75645
G1 X157.534 Y179.669 E6.78032
G1 X156.889 Y179.534 E6.79676
G1 X155.956 Y179.268 E6.82096
G1 X155.21 Y179.017 E6.84059
G1 X154.121 Y178.536 E6.87029
G1 X153.033 Y177.943 E6.9012
G1 X152.149 Y177.361 E6.9276
G1 X151.267 Y176.666 E6.95561
G1 X150.494 Y175.929 E6.98225
G1 X149.936 Y175.339 E7.00251
G1 X149.27 Y174.514 E7.02896
G1 X148.812 Y173.852 E7.04904
G1 X148.273 Y172.976 E7.0747
G1 X147.716 Y171.851 E7.10601
G1 X147.335 Y170.844 E7.13287
G1 X147.157 Y170.286 E7.14748
G1 X146.865 Y169.186 E7.17587
G1 X146.7 Y168.033 E7.20493
G1 X146.589 Y166.618 E7.24033
G1 X146.624 Y165.846 E7.25961
G1 X146.741 Y164.596 E7.29093
G1 X146.906 Y163.621 E7.31559
G1 X147.163 Y162.692 E7.33964
G1 X147.459 Y161.806 E7.36294
G1 X147.705 Y161.196 E7.37935
G1 X148.132 Y160.3 E7.40411
G1 X148.531 Y159.588 E7.42447
G1 X149.071 Y158.746 E7.44942
G1 X149.82 Y157.784 E7.47983
G1 X150.42 Y157.145 E7.5017
G1 X151.016 Y156.576 E7.52225
G1 X151.996 Y155.751 E7.55421
G1 X152.745 Y155.245 E7.57675
G1 X153.266 Y154.927 E7.59198
G1 X154.084 Y154.494 E7.61507
G1 X154.913 Y154.119 E7.63777
G1 X155.567 Y153.866 E7.65526
G1 X156.409 Y153.602 E7.67727
G1 X157.415 Y153.345 E7.70317
G1 X158.189 Y153.231 E7.72269
G1 X159.073 Y153.131 E7.74488
G1 X160.092 Y153.106 E7.7703
G1 X160.912 Y153.144 E7.79078
G1 X161.493 Y153.192 E7.80532
G1 X162.463 Y153.33 E7.82976
G1 X163.114 Y153.466 E7.84635
G1 X164.042 Y153.732 E7.87044
G1 X164.814 Y153.999 E7.89081
G1 X165.604 Y154.34 E7.91228
G1 X166.159 Y154.613 E7.92771
G1 X167.099 Y155.135 E7.95453
G1 X167.957 Y155.723 E7.98047
G1 X168.694 Y156.302 E8.00385
G1 X169.492 Y157.058 E8.03127
G1 X170.199 Y157.813 E8.05708
G1 X170.761 Y158.531 E8.07982
G1 X171.182 Y159.14 E8.09829
G1 X171.711 Y159.997 E8.12341
G1 X172.29 Y161.162 E8.15586
G1 X172.723 Y162.318 E8.18666
G1 X172.941 Y163.06 E8.20595
G1 X173.099 Y163.679 E8.22188
G1 X173.275 Y164.669 E8.24697
G1 X173.412 Y166.368 E8.28949
G1 X173.378 Y167.139 E8.30874
G1 X173.287 Y168.164 E8.33441
G1 X173.148 Y169.119 E8.35848
G1 X172.903 Y170.084 E8.38332
G1 X172.709 Y170.721 E8.39993
G1 X172.482 Y171.348 E8.41656
G1 X172.189 Y172.042 E8.43535
G1 X171.888 Y172.665 E8.45261
G1 X171.49 Y173.378 E8.47298
G1 X170.929 Y174.254 E8.49893
G1 X170.178 Y175.215 E8.52935
G1 X169.574 Y175.861 E8.55142
G1 X169.117 Y176.309 E8.56738
G1 X167.922 Y177.311 E8.60628
G1 X166.958 Y177.947 E8.63509
G1 X166.077 Y178.431 E8.66016
G1 X164.884 Y178.965 E8.69277
G1 X164.223 Y179.206 E8.71032
G1 X163.585 Y179.4 E8.72695
G1 X162.585 Y179.655 E8.7527
G1 X161.811 Y179.769 E8.77221
G0 F6000 X162.486 Y179.267
G1 F1200 X161.766 Y179.372 E8.79036
G1 X160.917 Y179.469 E8.81168
G1 X159.926 Y179.494 E8.83641
G1 X159.12 Y179.457 E8.85654
G1 X158.515 Y179.406 E8.87168
G1 X157.616 Y179.277 E8.89434
G1 X156.971 Y179.142 E8.91077
G1 X156.066 Y178.883 E8.93426
G1 X155.372 Y178.651 E8.95251
G1 X154.283 Y178.17 E8.98221
G1 X153.253 Y177.609 E9.01146
G1 X152.396 Y177.046 E9.03704
G1 X151.543 Y176.376 E9.0641
G1 X150.785 Y175.654 E9.09021
G1 X150.227 Y175.064 E9.11047
G1 X149.599 Y174.287 E9.13539
G1 X149.153 Y173.642 E9.15495
G1 X148.614 Y172.766 E9.18061
G1 X148.09 Y171.709 E9.21004
G1 X147.716 Y170.722 E9.23637
G1 X147.544 Y170.183 E9.25048
G1 X147.252 Y169.083 E9.27887
G1 X147.099 Y168.001 E9.30613
G1 X146.989 Y166.636 E9.34029
G1 X147.024 Y165.864 E9.35957
G1 X147.136 Y164.662 E9.38968
G1 X147.292 Y163.728 E9.4133
G1 X147.549 Y162.799 E9.43735
G1 X147.83 Y161.956 E9.45951
G1 X148.076 Y161.346 E9.47592
G1 X148.481 Y160.495 E9.49943
G1 X148.868 Y159.803 E9.51921
G1 X149.387 Y158.991 E9.54325
G1 X150.112 Y158.058 E9.57272
G1 X150.712 Y157.419 E9.59459
G1 X151.274 Y156.882 E9.61398
G1 X152.254 Y156.057 E9.64593
G1 X152.954 Y155.586 E9.66698
G1 X153.453 Y155.281 E9.68157
G1 X154.271 Y154.848 E9.70466
G1 X155.057 Y154.492 E9.72618
G1 X155.687 Y154.248 E9.74303
G1 X156.508 Y153.99 E9.7645
G1 X157.514 Y153.733 E9.7904
G1 X158.234 Y153.628 E9.80855
G1 X159.083 Y153.531 E9.82987
G1 X160.074 Y153.506 E9.8546
G1 X160.879 Y153.543 E9.8747
G1 X161.46 Y153.591 E9.88924
G1 X162.381 Y153.722 E9.91245
G1 X163.032 Y153.858 E9.92904
G1 X163.911 Y154.11 E9.95185
G1 X164.683 Y154.377 E9.97222
G1 X165.428 Y154.699 E9.99247
G1 X165.965 Y154.963 E10.0074
G1 X166.873 Y155.465 E10.03328
G1 X167.71 Y156.038 E10.05858
G1 X168.419 Y156.593 E10.08104
G1 X169.2 Y157.332 E10.10786
G1 X169.884 Y158.06 E10.13278
G1 X170.446 Y158.778 E10.15553
G1 X170.842 Y159.351 E10.1729
G1 X171.353 Y160.176 E10.19711
G1 X171.915 Y161.302 E10.2285
G1 X172.348 Y162.458 E10.25929
G1 X172.553 Y163.159 E10.27751
G1 X172.711 Y163.778 E10.29345
G1 X172.876 Y164.702 E10.31686
G1 X173.012 Y166.35 E10.35811
G1 X172.978 Y167.121 E10.37736
G1 X172.891 Y168.107 E10.40205
G1 X172.76 Y169.021 E10.42509
G1 X172.52 Y169.967 E10.44943
G1 X172.326 Y170.604 E10.46604
G1 X172.113 Y171.193 E10.48167
G1 X171.829 Y171.868 E10.49993
G1 X171.539 Y172.47 E10.5166
G1 X171.153 Y173.163 E10.53639
G1 X170.614 Y174.008 E10.56139
G1 X169.886 Y174.942 E10.59093
G1 X169.294 Y175.575 E10.61255
G1 X168.837 Y176.023 E10.62852
G1 X167.701 Y176.977 E10.66552
G1 X166.765 Y177.596 E10.69351
G1 X165.884 Y178.08 E10.71859
G1 X164.747 Y178.589 E10.74966
G1 X164.106 Y178.823 E10.76669
G1 X163.486 Y179.012 E10.78285
G1 X162.486 Y179.267 E10.8086
G0 F6000 X162.428 Y178.871
G1 F1200 X161.72 Y178.975 E10.82645
G1 X160.907 Y179.069 E10.84686
G1 X159.944 Y179.094 E10.87089
G1 X159.154 Y179.058 E10.89062
G1 X158.549 Y179.007 E10.90577
G1 X157.698 Y178.885 E10.92721
G1 X157.053 Y178.75 E10.94365
G1 X156.192 Y178.503 E10.96599
G1 X155.534 Y178.285 E10.98328
G1 X154.445 Y177.804 E11.01298
G1 X153.472 Y177.275 E11.04061
G1 X152.643 Y176.731 E11.06534
G1 X151.819 Y176.086 E11.09145
G1 X151.061 Y175.364 E11.11756
G1 X150.538 Y174.812 E11.13653
G1 X149.928 Y174.059 E11.1607
G1 X149.494 Y173.432 E11.17972
G1 X148.955 Y172.556 E11.20538
G1 X148.464 Y171.567 E11.23292
G1 X148.097 Y170.6 E11.25873
G1 X147.931 Y170.08 E11.27234
G1 X147.639 Y168.98 E11.30073
G1 X147.498 Y167.968 E11.32622
G1 X147.389 Y166.654 E11.35911
G1 X147.424 Y165.882 E11.37839
G1 X147.531 Y164.728 E11.4073
G1 X147.687 Y163.794 E11.43092
G1 X147.928 Y162.925 E11.45341
G1 X148.201 Y162.106 E11.47495
G1 X148.447 Y161.496 E11.49136
G1 X148.83 Y160.69 E11.51362
G1 X149.205 Y160.018 E11.53281
G1 X149.703 Y159.236 E11.55594
G1 X150.404 Y158.332 E11.58448
G1 X151.004 Y157.693 E11.60634
G1 X151.532 Y157.188 E11.62457
G1 X152.478 Y156.389 E11.65546
G1 X153.163 Y155.927 E11.67607
G1 X153.662 Y155.622 E11.69066
G1 X154.436 Y155.212 E11.7125
G1 X155.202 Y154.865 E11.73348
G1 X155.807 Y154.63 E11.74967
G1 X156.628 Y154.372 E11.77114
G1 X157.572 Y154.129 E11.79546
G1 X158.28 Y154.025 E11.81331
G1 X159.093 Y153.931 E11.83372
G1 X160.056 Y153.906 E11.85775
G1 X160.846 Y153.942 E11.87748
G1 X161.427 Y153.99 E11.89202
G1 X162.299 Y154.114 E11.91399
G1 X162.95 Y154.25 E11.93058
