;FLAVOR:Marlin
;TIME:4255
;Filament used: 7.06948m, 0m
;Layer height: 0.2
;MINX:122.51
;MINY:123.368
;MINZ:0.1
;MAXX:203.407
;MAXY:199.3
;MAXZ:24.9
;TARGET_MACHINE.NAME:Unknown
;Generated with Cura_SteamEngine 5.9.0
T0
M104 S245
M105
M109 S245
M82 ;absolute extrusion mode
LED_ALL_ON
SKEW_PROFILE LOAD=my_skew_profile
G92 E0
G1 F200 E1
G92 E0
TIMELAPSE_TAKE_FRAME
TIMELAPSE_TAKE_FRAME
G92 E0
G92 E0
;LAYER_COUNT:125
;LAYER:0
M107
G0 F6000 X157.974 Y199.171 Z0.1
;TYPE:SKIRT
G1 F1200 X157.383 Y199.28 E0.01499
G1 X156.762 Y199.3 E0.03049
G1 X154.247 Y199.143 E0.09335
G1 X151.514 Y199.041 E0.16157
G1 X148.798 Y199.015 E0.22933
G1 X146.108 Y199.067 E0.29644
G1 X143.451 Y199.19 E0.36279
G1 X142.26 Y199.261 E0.39255
G1 X141.622 Y199.238 E0.40848
G1 X141.018 Y199.121 E0.42383
G1 X139.387 Y198.654 E0.46615
G1 X138.637 Y198.421 E0.48574
G1 X138.11 Y198.207 E0.49993
G1 X137.451 Y197.821 E0.51898
G1 X135.173 Y195.757 E0.59566
G1 X133.07 Y193.955 E0.66474
G1 X131.017 Y192.295 E0.7306
G1 X127.754 Y189.833 E0.83257
G1 X127.289 Y189.406 E0.84831
G1 X126.928 Y188.957 E0.86269
G1 X126.519 Y188.229 E0.88352
G1 X123.015 Y179.476 E1.11871
G1 X122.748 Y178.771 E1.13751
G1 X122.592 Y178.224 E1.1517
G1 X122.51 Y177.535 E1.16901
G1 X122.532 Y176.967 E1.18319
G1 X122.634 Y176.41 E1.19731
G1 X122.891 Y175.696 E1.21624
G1 X123.136 Y175.254 E1.22885
G1 X123.606 Y174.653 E1.24788
G1 X124.061 Y174.239 E1.26323
G1 X125.5 Y173.129 E1.30856
G1 X127.579 Y171.451 E1.37521
G1 X129.689 Y169.648 E1.44444
G1 X131.691 Y167.835 E1.51181
G1 X133.659 Y165.952 E1.57976
G1 X135.573 Y164.012 E1.64774
G1 X137.415 Y162.04 E1.71505
G1 X139.191 Y160.022 E1.78211
G1 X140.952 Y157.905 E1.8508
G1 X142.627 Y155.775 E1.9184
G1 X144.198 Y153.66 E1.98412
G1 X145.356 Y152.124 E2.0321
G1 X145.799 Y151.567 E2.04985
G1 X146.423 Y150.826 E2.07402
G1 X147.269 Y149.869 E2.10588
G1 X147.773 Y149.327 E2.12435
G1 X148.554 Y148.525 E2.15227
G1 X149.784 Y147.337 E2.19493
G1 X150.503 Y146.683 E2.21917
G1 X151.275 Y146.019 E2.24457
G1 X152.441 Y145.07 E2.28208
G1 X153.661 Y144.145 E2.32027
G1 X154.75 Y143.377 E2.35351
G1 X155.778 Y142.698 E2.38424
G1 X157.301 Y141.76 E2.42886
G1 X159.607 Y140.296 E2.497
G1 X161.82 Y138.799 E2.56364
G1 X164.06 Y137.192 E2.63241
G1 X166.225 Y135.543 E2.7003
G1 X168.331 Y133.843 E2.76781
G1 X170.374 Y132.095 E2.83489
G1 X172.4 Y130.26 E2.90307
G1 X174.355 Y128.386 E2.97063
G1 X177.491 Y125.178 E3.08253
G1 X177.924 Y124.806 E3.09677
G1 X178.529 Y124.437 E3.11445
G1 X179.171 Y124.18 E3.1317
G1 X179.976 Y123.942 E3.15264
G1 X181.577 Y123.502 E3.19406
G1 X182.262 Y123.379 E3.21142
G1 X182.837 Y123.368 E3.22577
G1 X183.651 Y123.49 E3.2463
G1 X184.59 Y123.737 E3.27052
G1 X186.157 Y124.19 E3.31121
G1 X186.748 Y124.422 E3.32705
G1 X187.301 Y124.751 E3.3431
G1 X187.824 Y125.191 E3.36015
G1 X188.384 Y125.764 E3.38013
G1 X189.639 Y127.108 E3.426
G1 X190.006 Y127.567 E3.44066
G1 X190.382 Y128.286 E3.4609
G1 X191.622 Y131.319 E3.54264
G1 X192.735 Y133.813 E3.61077
G1 X193.92 Y136.284 E3.67913
G1 X195.153 Y138.68 E3.74635
G1 X196.467 Y141.066 E3.81429
G1 X197.834 Y143.389 E3.88153
G1 X199.278 Y145.692 E3.94934
G1 X200.804 Y147.978 E4.0179
G1 X202.094 Y149.815 E4.0739
G1 X202.38 Y150.306 E4.08807
G1 X202.605 Y150.866 E4.10312
G1 X202.781 Y151.428 E4.11781
G1 X203.256 Y153.101 E4.1612
G1 X203.377 Y153.749 E4.17764
G1 X203.407 Y154.448 E4.19509
G1 X203.054 Y156.642 E4.25053
G1 X202.681 Y159.306 E4.31763
G1 X202.39 Y161.908 E4.38294
G1 X202.285 Y162.956 E4.40921
G1 X202.18 Y163.576 E4.4249
G1 X201.758 Y165.102 E4.4644
G1 X201.539 Y165.841 E4.48362
G1 X201.295 Y166.455 E4.5001
G1 X201.003 Y166.962 E4.5147
G1 X199.381 Y168.928 E4.57828
G1 X197.685 Y171.076 E4.64655
G1 X196.064 Y173.252 E4.71423
G1 X194.514 Y175.456 E4.78145
G1 X192.98 Y177.781 E4.85093
G1 X191.601 Y180.003 E4.91617
G1 X190.205 Y182.402 E4.9854
G1 X188.91 Y184.777 E5.05288
G1 X187.672 Y187.2 E5.12076
G1 X187.289 Y187.824 E5.13902
G1 X186.457 Y188.683 E5.16885
G1 X185.292 Y189.834 E5.2097
G1 X184.83 Y190.227 E5.22484
G1 X183.754 Y190.964 E5.25737
G1 X183.068 Y191.357 E5.27709
G1 X181.963 Y191.686 E5.30585
G1 X180.165 Y192.173 E5.35232
G1 X177.469 Y192.764 E5.42117
G1 X174.811 Y193.43 E5.48952
G1 X172.239 Y194.151 E5.55615
G1 X169.603 Y194.971 E5.62502
G1 X167.055 Y195.845 E5.69221
G1 X164.506 Y196.798 E5.76009
G1 X161.725 Y197.934 E5.83503
G1 X160.483 Y198.457 E5.86865
G1 X159.416 Y198.776 E5.89643
G1 X157.974 Y199.171 E5.93372
G0 F6000 X157.898 Y198.778
G1 F1200 X157.37 Y198.88 E5.94714
G1 X156.749 Y198.9 E5.96264
G1 X154.262 Y198.743 E6.0248
G1 X151.529 Y198.641 E6.09302
G1 X148.794 Y198.615 E6.16125
G1 X146.089 Y198.667 E6.22874
G1 X143.432 Y198.791 E6.29509
G1 X142.271 Y198.861 E6.3241
G1 X141.698 Y198.845 E6.3384
G1 X141.094 Y198.728 E6.35375
G1 X139.505 Y198.272 E6.39499
G1 X138.787 Y198.05 E6.41374
G1 X138.26 Y197.836 E6.42792
G1 X137.689 Y197.497 E6.44449
G1 X135.442 Y195.461 E6.52013
G1 X133.322 Y193.644 E6.58978
G1 X131.269 Y191.984 E6.65564
G1 X128.022 Y189.536 E6.75707
G1 X127.601 Y189.155 E6.77124
G1 X127.24 Y188.706 E6.78561
G1 X126.89 Y188.08 E6.8035
G1 X123.389 Y179.334 E7.0385
G1 X123.133 Y178.661 E7.05646
G1 X122.977 Y178.114 E7.07065
G1 X122.91 Y177.55 E7.08482
G1 X122.932 Y176.982 E7.099
G1 X123.027 Y176.485 E7.11162
G1 X123.241 Y175.89 E7.12739
G1 X123.486 Y175.448 E7.14
G1 X123.876 Y174.948 E7.15582
G1 X124.305 Y174.556 E7.17031
G1 X125.744 Y173.446 E7.21565
G1 X127.839 Y171.755 E7.28281
G1 X129.949 Y169.952 E7.35204
G1 X131.968 Y168.124 E7.41998
G1 X133.936 Y166.241 E7.48792
G1 X135.858 Y164.293 E7.55619
G1 X137.707 Y162.313 E7.62377
G1 X139.499 Y160.278 E7.69141
G1 X141.26 Y158.161 E7.7601
G1 X142.941 Y156.022 E7.82796
G1 X144.289 Y154.218 E7.88414
G1 X144.517 Y153.901 E7.89388
G1 X145.669 Y152.373 E7.94161
G1 X146.105 Y151.825 E7.95908
G1 X146.723 Y151.091 E7.98302
G1 X147.562 Y150.141 E8.01463
G1 X148.059 Y149.606 E8.03285
G1 X148.832 Y148.813 E8.06047
G1 X150.053 Y147.633 E8.10283
G1 X150.764 Y146.986 E8.12681
G1 X151.527 Y146.329 E8.15193
G1 X152.683 Y145.389 E8.18909
G1 X153.892 Y144.472 E8.22695
G1 X154.971 Y143.711 E8.25988
G1 X155.988 Y143.039 E8.29029
G1 X157.511 Y142.101 E8.33491
G1 X159.821 Y140.634 E8.40317
G1 X162.053 Y139.124 E8.47039
G1 X164.293 Y137.517 E8.53916
G1 X166.467 Y135.861 E8.60733
G1 X168.591 Y134.147 E8.67542
G1 X170.634 Y132.399 E8.74249
G1 X172.677 Y130.549 E8.81124
G1 X174.632 Y128.675 E8.87879
G1 X177.755 Y125.479 E8.99026
G1 X178.135 Y125.146 E9.00287
G1 X178.678 Y124.808 E9.01882
G1 X179.284 Y124.564 E9.03512
G1 X180.082 Y124.328 E9.05588
G1 X181.683 Y123.888 E9.09729
G1 X182.274 Y123.779 E9.11228
G1 X182.779 Y123.764 E9.12489
G1 X183.549 Y123.877 E9.1443
G1 X184.479 Y124.121 E9.16828
G1 X186.014 Y124.563 E9.20813
G1 X186.546 Y124.767 E9.22234
G1 X187.044 Y125.058 E9.23673
G1 X187.538 Y125.471 E9.25279
G1 X188.092 Y126.037 E9.27255
G1 X189.327 Y127.358 E9.31766
G1 X189.668 Y127.784 E9.33127
G1 X190.027 Y128.471 E9.35061
G1 X191.257 Y131.482 E9.43174
G1 X192.374 Y133.986 E9.50014
G1 X193.564 Y136.467 E9.56878
G1 X194.797 Y138.863 E9.636
G1 X196.122 Y141.269 E9.70452
G1 X197.495 Y143.602 E9.77204
G1 X198.945 Y145.914 E9.84012
G1 X200.471 Y148.2 E9.90868
G1 X201.748 Y150.016 E9.96406
G1 X202.034 Y150.507 E9.97824
G1 X202.223 Y150.985 E9.99106
G1 X202.396 Y151.538 E10.00551
G1 X202.863 Y153.177 E10.04802
G1 X202.977 Y153.766 E10.06299
G1 X203.005 Y154.426 E10.07947
G1 X202.659 Y156.579 E10.13386
G1 X202.283 Y159.262 E10.20145
G1 X201.992 Y161.864 E10.26676
G1 X201.887 Y162.916 E10.29313
G1 X201.794 Y163.469 E10.30712
G1 X201.374 Y164.989 E10.34646
G1 X201.166 Y165.696 E10.36484
G1 X200.948 Y166.255 E10.37981
G1 X200.656 Y166.762 E10.3944
G1 X199.073 Y168.673 E10.4563
G1 X197.371 Y170.828 E10.5248
G1 X195.743 Y173.013 E10.59277
G1 X194.187 Y175.226 E10.66026
G1 X192.646 Y177.561 E10.73004
G1 X191.261 Y179.792 E10.79555
G1 X189.859 Y182.201 E10.86508
G1 X188.559 Y184.586 E10.93284
G1 X187.331 Y186.991 E11.0002
G1 X186.97 Y187.579 E11.01741
G1 X186.176 Y188.399 E11.04588
G1 X185.033 Y189.529 E11.08598
G1 X184.571 Y189.922 E11.10111
G1 X183.528 Y190.634 E11.13261
G1 X182.91 Y190.987 E11.15036
G1 X181.858 Y191.3 E11.17774
G1 X180.079 Y191.782 E11.22372
G1 X177.383 Y192.373 E11.29257
G1 X174.714 Y193.042 E11.3612
G1 X172.12 Y193.769 E11.42841
G1 X169.484 Y194.589 E11.49727
G1 X166.915 Y195.47 E11.56502
G1 X164.366 Y196.423 E11.6329
G1 X161.574 Y197.564 E11.70814
G1 X160.369 Y198.074 E11.74078
G1 X159.31 Y198.39 E11.76835
G1 X157.898 Y198.778 E11.80487
G0 F6000 X157.792 Y198.392
G1 F1200 X157.295 Y198.487 E11.8175
G1 X156.74 Y198.5 E11.83134
G1 X154.277 Y198.343 E11.89291
G1 X151.544 Y198.241 E11.96113
G1 X148.79 Y198.215 E12.02983
G1 X146.07 Y198.267 E12.0977
G1 X143.413 Y198.392 E12.16405
G1 X142.278 Y198.461 E12.19241
G1 X141.773 Y198.452 E12.20501
G1 X141.204 Y198.343 E12.21947
G1 X139.623 Y197.89 E12.26049
G1 X138.934 Y197.678 E12.27847
G1 X138.464 Y197.492 E12.29108
G1 X137.928 Y197.174 E12.30663
G1 X135.711 Y195.165 E12.38126
G1 X133.582 Y193.34 E12.45121
G1 X131.51 Y191.665 E12.51767
G1 X128.288 Y189.237 E12.61831
G1 X127.91 Y188.901 E12.63093
G1 X127.589 Y188.511 E12.64353
G1 X127.239 Y187.885 E12.66142
G1 X123.763 Y179.191 E12.89498
G1 X123.517 Y178.548 E12.91216
G1 X123.374 Y178.063 E12.92477
G1 X123.31 Y177.562 E12.93737
G1 X123.325 Y177.057 E12.94997
G1 X123.42 Y176.56 E12.96259
G1 X123.591 Y176.084 E12.97521
G1 X123.836 Y175.642 E12.98782
G1 X124.147 Y175.243 E13.00044
G1 X124.55 Y174.873 E13.01408
G1 X125.988 Y173.762 E13.05941
G1 X128.099 Y172.059 E13.12707
G1 X130.209 Y170.256 E13.1963
G1 X132.245 Y168.413 E13.26481
G1 X134.213 Y166.53 E13.33275
G1 X136.143 Y164.574 E13.4013
G1 X137.999 Y162.586 E13.46914
G1 X139.799 Y160.542 E13.53708
G1 X141.575 Y158.408 E13.60634
G1 X143.255 Y156.269 E13.67419
G1 X144.614 Y154.451 E13.73081
G1 X144.836 Y154.142 E13.7403
G1 X145.982 Y152.622 E13.78778
G1 X146.411 Y152.083 E13.80497
G1 X147.023 Y151.356 E13.82867
G1 X147.855 Y150.413 E13.86004
G1 X148.345 Y149.885 E13.87801
G1 X149.11 Y149.101 E13.90534
G1 X150.322 Y147.929 E13.9474
G1 X151.025 Y147.289 E13.97111
G1 X151.779 Y146.639 E13.99594
G1 X152.925 Y145.708 E14.03277
G1 X154.123 Y144.799 E14.07029
G1 X155.192 Y144.045 E14.10292
G1 X156.198 Y143.38 E14.133
G1 X157.721 Y142.442 E14.17762
G1 X160.036 Y140.971 E14.24604
G1 X162.286 Y139.449 E14.3138
G1 X164.526 Y137.842 E14.38257
G1 X166.709 Y136.179 E14.45103
G1 X168.851 Y134.451 E14.51968
G1 X170.894 Y132.703 E14.58675
G1 X172.954 Y130.838 E14.65607
G1 X174.909 Y128.964 E14.72362
G1 X178.019 Y125.78 E14.83465
G1 X178.399 Y125.447 E14.84725
G1 X178.828 Y125.179 E14.85987
G1 X179.398 Y124.948 E14.87521
G1 X180.188 Y124.714 E14.89577
G1 X181.789 Y124.274 E14.93718
G1 X182.286 Y124.179 E14.94981
G1 X182.791 Y124.164 E14.96241
G1 X183.448 Y124.264 E14.97899
G1 X184.368 Y124.505 E15.00271
G1 X185.874 Y124.938 E15.0418
G1 X186.348 Y125.115 E15.05442
G1 X186.787 Y125.365 E15.06702
G1 X187.281 Y125.778 E15.08309
G1 X187.8 Y126.31 E15.10162
G1 X189.015 Y127.608 E15.14598
G1 X189.331 Y128.003 E15.15859
G1 X189.655 Y128.618 E15.17593
G1 X189.856 Y129.126 E15.18956
G1 X190.892 Y131.645 E15.25751
G1 X192.013 Y134.159 E15.32617
G1 X193.208 Y136.65 E15.39509
G1 X194.441 Y139.046 E15.46231
G1 X195.777 Y141.472 E15.53139
G1 X197.156 Y143.815 E15.59921
G1 X198.612 Y146.136 E15.66756
G1 X200.138 Y148.422 E15.73612
G1 X201.404 Y150.22 E15.79097
G1 X201.662 Y150.655 E15.80359
G1 X201.841 Y151.105 E15.81567
G1 X202.011 Y151.648 E15.82986
G1 X202.478 Y153.287 E15.87238
G1 X202.577 Y153.783 E15.88499
G1 X202.603 Y154.404 E15.9005
G1 X202.264 Y156.516 E15.95386
G1 X201.885 Y159.218 E16.02192
G1 X201.594 Y161.82 E16.08723
G1 X201.489 Y162.876 E16.1137
G1 X201.4 Y163.402 E16.12701
G1 X200.99 Y164.876 E16.16517
G1 X200.782 Y165.583 E16.18356
G1 X200.601 Y166.055 E16.19617
G1 X200.309 Y166.562 E16.21076
G1 X198.759 Y168.425 E16.27122
G1 X197.057 Y170.58 E16.33972
G1 X195.422 Y172.774 E16.40797
G1 X193.86 Y174.996 E16.47573
G1 X192.312 Y177.341 E16.54582
G1 X190.921 Y179.581 E16.61159
G1 X189.513 Y182 E16.68141
G1 X188.208 Y184.395 E16.74945
G1 X186.99 Y186.782 E16.8163
G1 X186.651 Y187.334 E16.83246
G1 X185.895 Y188.115 E16.85957
G1 X184.774 Y189.224 E16.89891
G1 X184.312 Y189.617 E16.91404
G1 X183.33 Y190.287 E16.94369
G1 X182.752 Y190.617 E16.96029
G1 X181.753 Y190.914 E16.98629
G1 X179.993 Y191.391 E17.03178
G1 X177.297 Y191.982 E17.10063
G1 X174.617 Y192.654 E17.16955
G1 X172.001 Y193.387 E17.23732
G1 X169.365 Y194.207 E17.30618
G1 X166.775 Y195.095 E17.37448
G1 X164.226 Y196.048 E17.44237
G1 X161.417 Y197.196 E17.51806
G1 X160.255 Y197.691 E17.54957
G1 X159.204 Y198.004 E17.57692
G1 X157.792 Y198.392 E17.61345
G0 F6000 X179.431 Y134.737
G1 F1200 X179.373 Y134.753 E17.61495
G1 X179.36 Y134.749 E17.61529
G1 X179.185 Y134.574 E17.62147
G1 X179.195 Y134.538 E17.6224
G1 X179.361 Y134.363 E17.62842
G1 X179.631 Y134.263 E17.6356
G1 X180.086 Y134.009 E17.6486
G1 X180.497 Y133.689 E17.66159
G1 X180.854 Y133.31 E17.67458
G1 X181.15 Y132.88 E17.6876
G1 X181.376 Y132.411 E17.70059
G1 X181.471 Y132.13 E17.70799
G1 X181.645 Y131.534 E17.72347
G1 X182.127 Y131.025 E17.74096
G1 X182.651 Y130.878 E17.75454
G1 X183.175 Y131.025 E17.76811
G1 X183.655 Y131.532 E17.78553
G1 X183.811 Y132.066 E17.79941
G1 X183.657 Y132.615 E17.81363
G1 X183.222 Y133.05 E17.82897
G1 X182.478 Y133.258 E17.84825
G1 X182.266 Y133.246 E17.85354
G1 X181.747 Y133.295 E17.86655
G1 X181.242 Y133.424 E17.87955
G1 X180.763 Y133.628 E17.89254
G1 X180.32 Y133.903 E17.90554
G1 X179.927 Y134.241 E17.91847
G1 X179.431 Y134.737 E17.93597
G0 F6000 X179.64 Y135.094
G1 F1200 X179.371 Y135.169 E17.94294
G1 X179.149 Y135.104 E17.94871
G1 X178.826 Y134.781 E17.9601
G1 X178.766 Y134.579 E17.96536
G1 X178.838 Y134.334 E17.97173
G1 X179.134 Y134.022 E17.98246
G1 X179.49 Y133.887 E17.99195
G1 X179.914 Y133.643 E18.00416
G1 X180.293 Y133.332 E18.01639
G1 X180.616 Y132.964 E18.0286
G1 X180.875 Y132.549 E18.0408
G1 X181.087 Y132.018 E18.05507
G1 X181.289 Y131.328 E18.073
G1 X181.912 Y130.67 E18.0956
G1 X182.651 Y130.463 E18.11475
G1 X183.39 Y130.67 E18.13389
G1 X184.012 Y131.327 E18.15646
G1 X184.227 Y132.063 E18.17559
G1 X184.013 Y132.825 E18.19533
G1 X183.432 Y133.406 E18.21583
G1 X182.524 Y133.66 E18.23935
G1 X182.214 Y133.647 E18.24709
G1 X181.728 Y133.706 E18.2593
G1 X181.258 Y133.843 E18.27151
G1 X180.817 Y134.055 E18.28372
G1 X180.416 Y134.336 E18.29593
G1 X180.21 Y134.524 E18.30289
G1 X179.64 Y135.094 E18.323
G0 F6000 X179.85 Y135.45
G1 F1200 X179.37 Y135.584 E18.33543
G1 X178.937 Y135.458 E18.34668
G1 X178.471 Y134.992 E18.36312
G1 X178.35 Y134.578 E18.37388
G1 X178.481 Y134.128 E18.38557
G1 X178.906 Y133.68 E18.40097
G1 X178.922 Y133.675 E18.40139
G1 X179.348 Y133.512 E18.41277
G1 X179.738 Y133.277 E18.42413
G1 X180.082 Y132.978 E18.4355
G1 X180.368 Y132.623 E18.44687
G1 X180.587 Y132.224 E18.45822
G1 X180.703 Y131.905 E18.46669
G1 X180.931 Y131.124 E18.48698
G1 X181.699 Y130.314 E18.51483
G1 X182.651 Y130.047 E18.53949
G1 X183.603 Y130.314 E18.56416
G1 X184.369 Y131.123 E18.59195
G1 X184.643 Y132.06 E18.6163
G1 X184.37 Y133.034 E18.64153
G1 X183.641 Y133.763 E18.66725
G1 X182.58 Y134.06 E18.69473
G1 X182.167 Y134.05 E18.70504
G1 X181.716 Y134.119 E18.71642
G1 X181.285 Y134.265 E18.72777
G1 X180.885 Y134.484 E18.73915
G1 X180.493 Y134.807 E18.75182
G1 X179.85 Y135.45 E18.7745
G0 F6000 X180.057 Y135.807
G1 F1200 X179.366 Y136 E18.7924
G1 X178.729 Y135.814 E18.80895
G1 X178.116 Y135.201 E18.83058
G1 X177.934 Y134.577 E18.84679
