;FLAVOR:Marlin
;TIME:4216
;Filament used: 7.02354m, 0m
;Layer height: 0.2
;MINX:122.701
;MINY:133.663
;MINZ:0.1
;MAXX:202.626
;MAXY:210.031
;MAXZ:24.9
;TARGET_MACHINE.NAME:Unknown
;Generated with Cura_SteamEngine 5.9.0
T0
M104 S245
M105
M109 S245
M82 ;absolute extrusion mode
LED_ALL_ON
SKEW_PROFILE LOAD=my_skew_profile
G92 E0
G1 F200 E1
G92 E0
TIMELAPSE_TAKE_FRAME
TIMELAPSE_TAKE_FRAME
G92 E0
G92 E0
;LAYER_COUNT:125
;LAYER:0
M107
G0 F6000 X180.382 Y209.922 Z0.1
;TYPE:SKIRT
G1 F1200 X179.763 Y210.024 E0.01565
G1 X179.19 Y210.031 E0.02994
G1 X178.351 Y209.901 E0.05112
G1 X176.681 Y209.416 E0.0945
G1 X175.925 Y209.182 E0.11424
G1 X175.398 Y208.968 E0.12843
G1 X174.857 Y208.647 E0.14412
G1 X174.364 Y208.237 E0.16012
G1 X172.998 Y206.876 E0.20822
G1 X172.375 Y206.227 E0.23066
G1 X171.874 Y205.65 E0.24972
G1 X170.936 Y204.538 E0.28601
G1 X169.169 Y202.561 E0.35216
G1 X167.265 Y200.547 E0.42129
G1 X165.371 Y198.656 E0.48806
G1 X163.376 Y196.771 E0.55652
G1 X161.356 Y194.97 E0.62403
G1 X159.289 Y193.23 E0.69143
G1 X157.183 Y191.554 E0.75857
G1 X153.872 Y189.103 E0.86133
G1 X152.62 Y188.152 E0.90055
G1 X151.545 Y187.278 E0.93511
G1 X150.243 Y186.142 E0.97821
G1 X149.563 Y185.511 E1.00135
G1 X148.79 Y184.752 E1.02838
G1 X147.844 Y183.775 E1.0623
G1 X146.689 Y182.491 E1.10538
G1 X145.988 Y181.658 E1.13254
G1 X145.428 Y180.965 E1.15477
G1 X144.681 Y179.978 E1.18564
G1 X143.735 Y178.661 E1.22609
G1 X142.123 Y176.485 E1.29365
G1 X140.428 Y174.325 E1.36214
G1 X138.715 Y172.266 E1.42895
G1 X136.908 Y170.217 E1.4971
G1 X135.039 Y168.211 E1.56549
G1 X133.171 Y166.316 E1.63187
G1 X131.151 Y164.383 E1.70161
G1 X129.174 Y162.594 E1.76812
G1 X127.151 Y160.865 E1.83451
G1 X124.196 Y158.504 E1.92886
G1 X123.694 Y158.019 E1.94627
G1 X123.315 Y157.514 E1.96202
G1 X123.02 Y156.955 E1.97779
G1 X122.818 Y156.357 E1.99353
G1 X122.718 Y155.797 E2.00772
G1 X122.701 Y155.169 E2.02339
G1 X122.784 Y154.544 E2.03912
G1 X122.986 Y153.855 E2.05703
G1 X126.516 Y145.239 E2.2893
G1 X126.834 Y144.502 E2.30932
G1 X127.102 Y144.001 E2.32349
G1 X127.48 Y143.486 E2.33943
G1 X128.125 Y142.902 E2.36114
G1 X128.773 Y142.429 E2.38115
G1 X130.962 Y140.784 E2.44945
G1 X133.055 Y139.117 E2.5162
G1 X135.151 Y137.346 E2.58465
G1 X137.444 Y135.297 E2.66136
G1 X137.975 Y134.903 E2.67785
G1 X138.596 Y134.571 E2.69542
G1 X139.688 Y134.245 E2.72385
G1 X141.335 Y133.794 E2.76644
G1 X142.033 Y133.671 E2.78412
G1 X142.676 Y133.663 E2.80016
G1 X143.582 Y133.734 E2.82283
G1 X146.271 Y133.912 E2.89006
G1 X149.025 Y134.017 E2.95881
G1 X151.733 Y134.044 E3.02636
G1 X154.786 Y133.983 E3.10253
G1 X155.548 Y134.026 E3.12157
G1 X156.873 Y134.374 E3.15574
G1 X158.536 Y134.856 E3.19894
G1 X159.508 Y135.237 E3.22498
G1 X160.379 Y135.591 E3.24843
G1 X162.958 Y136.557 E3.31713
G1 X165.499 Y137.429 E3.38414
G1 X168.107 Y138.242 E3.45229
G1 X170.728 Y138.978 E3.5202
G1 X173.34 Y139.631 E3.58736
G1 X176.017 Y140.222 E3.65575
G1 X180.462 Y141.049 E3.76853
G1 X181.509 Y141.323 E3.79553
G1 X182.204 Y141.518 E3.81353
G1 X182.96 Y141.746 E3.83323
G1 X183.546 Y141.983 E3.849
G1 X184.093 Y142.315 E3.86496
G1 X184.588 Y142.735 E3.88115
G1 X185.168 Y143.327 E3.90183
G1 X186.324 Y144.57 E3.94417
G1 X186.713 Y145.078 E3.96013
G1 X187.017 Y145.639 E3.97605
G1 X187.317 Y146.338 E3.99502
G1 X188.447 Y148.873 E4.06426
G1 X189.615 Y151.313 E4.13174
G1 X190.856 Y153.726 E4.19942
G1 X192.166 Y156.107 E4.26721
G1 X193.541 Y158.442 E4.33481
G1 X194.994 Y160.762 E4.4031
G1 X196.473 Y162.98 E4.4696
G1 X198.063 Y165.224 E4.5382
G1 X199.69 Y167.389 E4.60576
G1 X201.213 Y169.312 E4.66695
G1 X201.538 Y169.795 E4.68147
G1 X201.86 Y170.56 E4.70218
G1 X202.28 Y171.956 E4.73854
G1 X202.486 Y172.707 E4.75797
G1 X202.609 Y173.391 E4.7753
G1 X202.626 Y173.973 E4.78983
G1 X202.487 Y174.816 E4.81114
G1 X202.084 Y176.292 E4.84931
G1 X201.871 Y177.012 E4.86804
G1 X201.622 Y177.636 E4.8848
G1 X201.305 Y178.168 E4.90024
G1 X200.466 Y179.329 E4.93598
G1 X198.912 Y181.544 E5.00347
G1 X197.404 Y183.823 E5.07164
G1 X195.96 Y186.147 E5.13989
G1 X194.603 Y188.477 E5.20715
G1 X193.31 Y190.844 E5.27443
G1 X192.062 Y193.294 E5.34302
G1 X190.909 Y195.726 E5.41016
G1 X189.826 Y198.19 E5.4773
G1 X188.791 Y200.734 E5.54581
G1 X187.843 Y203.262 E5.61316
G1 X187.553 Y204.114 E5.63561
G1 X187.197 Y205.101 E5.66178
G1 X186.931 Y205.667 E5.67738
G1 X186.555 Y206.242 E5.69452
G1 X185.748 Y207.071 E5.72338
G1 X184.531 Y208.271 E5.76602
G1 X184.041 Y208.671 E5.78179
G1 X183.549 Y208.961 E5.79604
G1 X182.901 Y209.218 E5.81343
G1 X181.143 Y209.724 E5.85906
G1 X180.382 Y209.922 E5.87868
G0 F6000 X180.314 Y209.528
G1 F1200 X179.754 Y209.624 E5.89285
G1 X179.249 Y209.635 E5.90545
G1 X178.463 Y209.517 E5.92528
G1 X176.799 Y209.034 E5.9685
G1 X176.075 Y208.811 E5.9874
G1 X175.548 Y208.597 E6.00159
G1 X175.113 Y208.339 E6.0142
G1 X174.62 Y207.929 E6.0302
G1 X173.286 Y206.599 E6.07719
G1 X172.677 Y205.965 E6.09912
G1 X172.18 Y205.392 E6.11804
G1 X171.242 Y204.28 E6.15433
G1 X169.46 Y202.286 E6.22104
G1 X167.556 Y200.272 E6.29017
G1 X165.654 Y198.373 E6.35722
G1 X163.651 Y196.48 E6.42597
G1 X161.622 Y194.671 E6.49378
G1 X159.547 Y192.924 E6.56144
G1 X157.421 Y191.232 E6.62922
G1 X154.114 Y188.785 E6.73184
G1 X152.872 Y187.841 E6.77076
G1 X151.808 Y186.977 E6.80495
G1 X150.515 Y185.849 E6.84775
G1 X149.843 Y185.226 E6.87061
G1 X149.077 Y184.474 E6.89738
G1 X148.141 Y183.507 E6.93096
G1 X146.995 Y182.233 E6.9737
G1 X146.299 Y181.407 E7.00065
G1 X145.747 Y180.723 E7.02257
G1 X145.006 Y179.745 E7.05318
G1 X144.06 Y178.428 E7.09363
G1 X142.438 Y176.238 E7.16161
G1 X140.743 Y174.078 E7.2301
G1 X139.023 Y172.01 E7.2972
G1 X137.208 Y169.952 E7.36565
G1 X135.332 Y167.938 E7.43431
G1 X133.456 Y166.035 E7.50096
G1 X131.428 Y164.094 E7.57099
G1 X129.442 Y162.297 E7.6378
G1 X127.401 Y160.552 E7.70479
G1 X124.446 Y158.191 E7.79914
G1 X124.012 Y157.777 E7.8141
G1 X123.667 Y157.324 E7.8283
G1 X123.398 Y156.824 E7.84247
G1 X123.212 Y156.287 E7.85664
G1 X123.112 Y155.727 E7.87083
G1 X123.098 Y155.222 E7.88344
G1 X123.181 Y154.597 E7.89916
G1 X123.356 Y154.007 E7.91451
G1 X126.884 Y145.397 E8.14662
G1 X127.187 Y144.691 E8.16579
G1 X127.455 Y144.19 E8.17996
G1 X127.779 Y143.755 E8.19349
G1 X128.361 Y143.225 E8.21313
G1 X129.009 Y142.752 E8.23314
G1 X131.202 Y141.104 E8.30157
G1 X133.313 Y139.423 E8.36888
G1 X135.409 Y137.652 E8.43733
G1 X137.684 Y135.617 E8.51348
G1 X138.164 Y135.256 E8.52846
G1 X138.753 Y134.941 E8.54512
G1 X139.794 Y134.631 E8.57221
G1 X141.441 Y134.18 E8.61481
G1 X142.038 Y134.071 E8.62995
G1 X142.681 Y134.063 E8.64599
G1 X143.55 Y134.133 E8.66774
G1 X146.256 Y134.312 E8.73539
G1 X149.01 Y134.417 E8.80414
G1 X151.737 Y134.444 E8.87216
G1 X154.794 Y134.383 E8.94844
G1 X155.484 Y134.423 E8.96568
G1 X156.762 Y134.758 E8.99863
G1 X158.39 Y135.228 E9.0409
G1 X159.357 Y135.607 E9.06681
G1 X160.239 Y135.966 E9.09057
G1 X162.818 Y136.932 E9.15926
G1 X165.38 Y137.811 E9.22683
G1 X167.988 Y138.624 E9.29498
G1 X170.631 Y139.366 E9.36345
G1 X173.254 Y140.022 E9.4309
G1 X175.931 Y140.613 E9.49929
G1 X180.361 Y141.436 E9.61168
G1 X181.401 Y141.708 E9.6385
G1 X182.089 Y141.901 E9.65632
G1 X182.813 Y142.118 E9.67518
G1 X183.341 Y142.327 E9.68934
G1 X183.835 Y142.621 E9.70368
G1 X184.302 Y143.015 E9.71893
G1 X184.875 Y143.6 E9.73935
G1 X186.008 Y144.816 E9.78081
G1 X186.361 Y145.269 E9.79514
G1 X186.665 Y145.83 E9.81105
G1 X186.952 Y146.501 E9.82926
G1 X188.086 Y149.046 E9.89876
G1 X189.259 Y151.496 E9.96652
G1 X190.5 Y153.909 E10.03421
G1 X191.821 Y156.31 E10.10257
G1 X193.196 Y158.645 E10.17016
G1 X194.661 Y160.984 E10.23901
G1 X196.14 Y163.202 E10.30551
G1 X197.743 Y165.464 E10.37467
G1 X199.377 Y167.638 E10.44251
G1 X200.881 Y169.535 E10.5029
G1 X201.184 Y169.985 E10.51643
G1 X201.491 Y170.715 E10.53619
G1 X201.894 Y172.062 E10.57126
G1 X202.1 Y172.813 E10.59068
G1 X202.209 Y173.403 E10.60565
G1 X202.225 Y173.946 E10.6192
G1 X202.101 Y174.711 E10.63853
G1 X201.7 Y176.179 E10.67649
G1 X201.498 Y176.867 E10.69438
G1 X201.278 Y177.431 E10.70948
G1 X200.961 Y177.963 E10.72493
G1 X200.142 Y179.095 E10.75978
G1 X198.578 Y181.323 E10.82769
G1 X197.07 Y183.602 E10.89586
G1 X195.62 Y185.936 E10.9644
G1 X194.257 Y188.276 E11.03195
G1 X192.959 Y190.652 E11.09949
G1 X191.706 Y193.112 E11.16835
G1 X190.543 Y195.565 E11.23607
G1 X189.455 Y198.039 E11.30349
G1 X188.42 Y200.583 E11.372
G1 X187.469 Y203.122 E11.43964
G1 X187.176 Y203.979 E11.46223
G1 X186.834 Y204.933 E11.48751
G1 X186.596 Y205.448 E11.50166
G1 X186.239 Y205.994 E11.51794
G1 X185.467 Y206.786 E11.54552
G1 X184.276 Y207.963 E11.58729
G1 X183.838 Y208.326 E11.60148
G1 X183.346 Y208.616 E11.61573
G1 X182.79 Y208.834 E11.63063
G1 X181.041 Y209.337 E11.67603
G1 X180.314 Y209.528 E11.69478
G0 F6000 X180.243 Y209.134
G1 F1200 X179.745 Y209.224 E11.7074
G1 X179.24 Y209.235 E11.72
G1 X178.574 Y209.133 E11.73681
G1 X176.916 Y208.652 E11.77987
G1 X176.222 Y208.439 E11.79798
G1 X175.752 Y208.253 E11.81059
G1 X175.317 Y207.995 E11.82321
G1 X174.902 Y207.646 E11.83673
G1 X173.574 Y206.322 E11.88351
G1 X172.979 Y205.703 E11.90493
G1 X172.486 Y205.134 E11.92371
G1 X171.548 Y204.022 E11.96
G1 X169.751 Y202.011 E12.02727
G1 X167.847 Y199.997 E12.09641
G1 X165.937 Y198.09 E12.16374
G1 X163.926 Y196.189 E12.23277
G1 X161.888 Y194.372 E12.30088
G1 X159.805 Y192.618 E12.36881
G1 X157.659 Y190.91 E12.43722
G1 X154.356 Y188.466 E12.53972
G1 X153.124 Y187.53 E12.57832
G1 X152.071 Y186.676 E12.61214
G1 X150.787 Y185.556 E12.65464
G1 X150.123 Y184.94 E12.67723
G1 X149.364 Y184.196 E12.70374
G1 X148.438 Y183.239 E12.73696
G1 X147.301 Y181.975 E12.77937
G1 X146.61 Y181.156 E12.8061
G1 X146.066 Y180.481 E12.82773
G1 X145.331 Y179.511 E12.85809
G1 X144.384 Y178.194 E12.89855
G1 X142.753 Y175.991 E12.96693
G1 X141.058 Y173.831 E13.03542
G1 X139.33 Y171.754 E13.10281
G1 X137.501 Y169.679 E13.17181
G1 X135.625 Y167.665 E13.24047
G1 X133.741 Y165.754 E13.30741
G1 X131.705 Y163.805 E13.37772
G1 X129.71 Y162 E13.44483
G1 X127.651 Y160.239 E13.51242
G1 X124.696 Y157.878 E13.60677
G1 X124.328 Y157.532 E13.61937
G1 X124.018 Y157.132 E13.63199
G1 X123.775 Y156.689 E13.6446
G1 X123.605 Y156.213 E13.6572
G1 X123.512 Y155.716 E13.66982
G1 X123.498 Y155.211 E13.68242
G1 X123.565 Y154.709 E13.69505
G1 X123.726 Y154.159 E13.70935
G1 X127.252 Y145.554 E13.94132
G1 X127.541 Y144.877 E13.95969
G1 X127.776 Y144.429 E13.97231
G1 X128.078 Y144.024 E13.98491
G1 X128.597 Y143.548 E14.00247
G1 X129.245 Y143.075 E14.02249
G1 X131.442 Y141.424 E14.09104
G1 X133.571 Y139.729 E14.15893
G1 X135.667 Y137.958 E14.22738
G1 X137.951 Y135.915 E14.30382
G1 X138.353 Y135.609 E14.31642
G1 X138.91 Y135.311 E14.33218
G1 X139.9 Y135.017 E14.35794
G1 X141.547 Y134.566 E14.40054
G1 X142.044 Y134.471 E14.41316
G1 X142.649 Y134.462 E14.42825
G1 X143.518 Y134.532 E14.45
G1 X146.241 Y134.712 E14.51807
G1 X148.995 Y134.817 E14.58682
G1 X151.741 Y134.844 E14.65532
G1 X154.802 Y134.783 E14.7317
G1 X155.42 Y134.82 E14.74714
G1 X156.651 Y135.142 E14.77888
G1 X158.244 Y135.6 E14.82023
G1 X159.206 Y135.977 E14.846
G1 X160.099 Y136.341 E14.87006
G1 X162.678 Y137.307 E14.93876
G1 X165.261 Y138.193 E15.00687
G1 X167.869 Y139.006 E15.07502
G1 X170.534 Y139.754 E15.14407
G1 X173.168 Y140.413 E15.2118
G1 X175.845 Y141.004 E15.28018
G1 X180.26 Y141.823 E15.39219
G1 X181.293 Y142.093 E15.41883
G1 X181.975 Y142.284 E15.4365
G1 X182.669 Y142.491 E15.45456
G1 X183.14 Y142.673 E15.46716
G1 X183.577 Y142.927 E15.47977
G1 X184.044 Y143.321 E15.49501
G1 X184.583 Y143.873 E15.51425
G1 X185.695 Y145.065 E15.55492
G1 X186.01 Y145.46 E15.56752
G1 X186.297 Y145.988 E15.58251
G1 X186.585 Y146.659 E15.60073
G1 X187.725 Y149.219 E15.67063
G1 X188.903 Y151.679 E15.73867
G1 X190.144 Y154.092 E15.80635
G1 X191.476 Y156.513 E15.87528
G1 X192.851 Y158.848 E15.94288
G1 X194.328 Y161.206 E16.01229
G1 X195.807 Y163.424 E16.07879
G1 X197.423 Y165.704 E16.1485
G1 X199.064 Y167.887 E16.21662
G1 X200.549 Y169.758 E16.27621
G1 X200.831 Y170.177 E16.28881
G1 X201.108 Y170.83 E16.3065
G1 X201.508 Y172.168 E16.34134
G1 X201.714 Y172.919 E16.36077
G1 X201.809 Y173.415 E16.37336
G1 X201.824 Y173.921 E16.38599
G1 X201.715 Y174.606 E16.40329
G1 X201.316 Y176.066 E16.44105
G1 X201.114 Y176.754 E16.45894
G1 X200.934 Y177.227 E16.47156
G1 X200.637 Y177.729 E16.48611
G1 X199.818 Y178.861 E16.52096
G1 X198.244 Y181.102 E16.58928
G1 X196.736 Y183.381 E16.65744
G1 X195.28 Y185.725 E16.72628
G1 X193.911 Y188.075 E16.79412
G1 X192.608 Y190.46 E16.86191
G1 X191.35 Y192.931 E16.93108
G1 X190.177 Y195.404 E16.99936
G1 X189.089 Y197.878 E17.06678
G1 X188.045 Y200.443 E17.13586
G1 X187.094 Y202.982 E17.20349
G1 X186.799 Y203.844 E17.22622
G1 X186.469 Y204.768 E17.25069
G1 X186.261 Y205.229 E17.26331
G1 X185.925 Y205.742 E17.27861
G1 X185.186 Y206.502 E17.30505
G1 X184.018 Y207.657 E17.34603
G1 X183.632 Y207.983 E17.35863
G1 X183.199 Y208.244 E17.37124
G1 X182.677 Y208.45 E17.38524
G1 X181.862 Y208.691 E17.40644
G1 X180.939 Y208.95 E17.43035
G1 X180.243 Y209.134 E17.44831
G0 F6000 X142.567 Y142.578
G1 F1200 X142.444 Y142.701 E17.45265
G1 X142.342 Y142.729 E17.45529
G1 X142.293 Y142.715 E17.45656
G1 X142.048 Y142.47 E17.4652
G1 X142.042 Y142.45 E17.46572
G1 X142.077 Y142.33 E17.46884
G1 X142.339 Y142.051 E17.47839
G1 X142.405 Y142.032 E17.4801
G1 X142.432 Y142.039 E17.4808
G1 X142.589 Y142.208 E17.48655
G1 X142.63 Y142.352 E17.49029
G1 X142.567 Y142.578 E17.49614
G0 F6000 X142.654 Y143.057
G1 F1200 X142.339 Y143.145 E17.5043
G1 X142.082 Y143.07 E17.51098
G1 X141.693 Y142.681 E17.5247
G1 X141.625 Y142.45 E17.53071
G1 X141.72 Y142.126 E17.53913
G1 X142.121 Y141.697 E17.55378
G1 X142.404 Y141.616 E17.56112
G1 X142.646 Y141.683 E17.56739
G1 X142.947 Y142.005 E17.57838
G1 X143.045 Y142.353 E17.5874
G1 X142.923 Y142.788 E17.59867
G1 X142.654 Y143.057 E17.60816
G0 F6000 X142.862 Y143.415
G1 F1200 X142.337 Y143.562 E17.62176
G1 X141.872 Y143.426 E17.63384
G1 X141.338 Y142.892 E17.65268
G1 X141.209 Y142.45 E17.66417
G1 X141.363 Y141.923 E17.67786
G1 X141.904 Y141.344 E17.69763
G1 X142.402 Y141.2 E17.71056
G1 X142.861 Y141.328 E17.72245
G1 X143.306 Y141.803 E17.73869
G1 X143.461 Y142.352 E17.75292
G1 X143.28 Y142.997 E17.76963
G1 X142.862 Y143.415 E17.78437
G0 F6000 X142.335 Y143.978
G1 F1200 X141.661 Y143.781 E17.80189
G1 X140.984 Y143.104 E17.82577
G1 X140.793 Y142.448 E17.84282
G1 X141.006 Y141.718 E17.86178
G1 X141.686 Y140.991 E17.88662
G1 X142.401 Y140.784 E17.90518
G1 X143.075 Y140.972 E17.92264
G1 X143.664 Y141.602 E17.94415
G1 X143.876 Y142.351 E17.96357
G1 X143.637 Y143.206 E17.98572
G1 X143.071 Y143.772 E18.00568
G1 X142.335 Y143.978 E18.02475
G0 F6000 X142.332 Y144.394
G1 F1200 X141.45 Y144.136 E18.04767
G1 X140.629 Y143.315 E18.07664
G1 X140.376 Y142.449 E18.09914
G1 X140.648 Y141.515 E18.12341
G1 X141.47 Y140.638 E18.15339
G1 X142.399 Y140.369 E18.17752
G1 X143.294 Y140.618 E18.20069
G1 X144.022 Y141.397 E18.22729
G1 X144.292 Y142.35 E18.252
G1 X143.993 Y143.416 E18.27961
G1 X143.281 Y144.128 E18.30473
G1 X142.332 Y144.394 E18.32932
G0 F6000 X142.329 Y144.81
G1 F1200 X141.242 Y144.492 E18.35757
G1 X140.273 Y143.523 E18.39175
G1 X139.959 Y142.449 E18.41967
G1 X140.291 Y141.312 E18.44921
G1 X141.254 Y140.283 E18.48437
G1 X142.394 Y139.953 E18.51397
G1 X143.509 Y140.263 E18.54284
G1 X144.381 Y141.195 E18.57468
G1 X144.708 Y142.351 E18.60465
G1 X144.352 Y143.621 E18.63755
G1 X143.488 Y144.485 E18.66803
G1 X142.329 Y144.81 E18.69806
G0 F6000 X142.328 Y145.226
G1 F1200 X141.031 Y144.847 E18.73176
G1 X139.918 Y143.734 E18.77103
G1 X139.542 Y142.449 E18.80443
G1 X139.934 Y141.107 E18.8393
G1 X141.037 Y139.929 E18.87956
